X:27
T:Rose in The Heather
R:jig
D:Irlande by Frankie Gavin, Arty Mc Glynn And Aidan Coffey
M:6/8
K:D
~F3 EFE|DFA BAF|ABd ede|fdB AFE|D2F EDB,|DFA BAF|AdB AFE|1 FDD D3:|2 FDD
D2e||
|:fdB ABd|faa afd|~g3 fed|Bee efg|fdB ABd|faa afa|baf gfe|1 fdc d2e:|2 
fdB AFE||
D2F EDB,|DFA BAF|ABd ede|fdB AFE|
~F3 EFE|DFA Bcd|edB AFE|FDD D3:|
|:fdB ABd|faa afd|~g3 fed|Bee ede|fdB ABd|
faa afa|baf gfe|1 fdd d2e:|2 fdB AFE||
~F3 EFE|DFA BAF|ABd ede|fdB AFE|
D2F EDB,|DFA BAF|AdB AFE|1 FDD D3:|2 FDD D2e||
|:fdB AFA|dfa afd|~g3 fed|Bee ede|
fdB AFA|dfa afa|baf gfe|1 fdd d2e:|2 fdB AFE||
|:D2F EDB,|DFA BAF|ABd e/f/ge|fdB AFE|
FAF EFE|DFA ABd|edB AFE|1EDC D2A,:|2EDC Deg
|:fdB ABd|faa afd|~g3 fed|Bcd efg|
fdB ABd|faa afa|baf gfe|1fdc d2e:|2fdB AFE|
